packages/admin/admin-icons/icons/store.svg

<svg xmlns="http://www.w3.org/2000/svg" width="16" height="16" viewBox="0 0 16 16"><path fill="#0F0F0F" fill-rule="evenodd" d="M13.1566005,1 C13.528995,1 13.8667756,1.20641139 14.0388901,1.52922767 L14.0899461,1.64102092 L15.7487146,5.95381925 C16.1201717,6.91960768 15.638371,8.00365936 14.6725826,8.37511645 C14.457952,8.45766667 14.2299583,8.5 14,8.5 C13.1368193,8.5 12.3484997,8.12243451 11.8086901,7.51074016 C11.5034119,7.98918505 11.0085293,8.34548426 10.4064055,8.46127731 C10.2724701,8.48703411 10.1363895,8.5 10,8.5 C9.18207085,8.5 8.45588414,8.10720392 7.99978306,7.49995493 C7.54411586,8.10720392 6.81792915,8.5 6,8.5 C5.23994114,8.5 4.57191131,8.10597689 4.18903352,7.51105371 C3.70387533,8.06286407 3.01442106,8.42420335 2.25001949,8.48937943 L2.25,13.5 C2.25,13.7454599 2.42687516,13.9496084 2.66012437,13.9919443 L2.75,14 L13.25,14 C13.4954599,14 13.6996084,13.8231248 13.7419443,13.5898756 L13.75,13.5 L13.75,10.5 C13.75,10.2238576 13.9738576,10 14.25,10 C14.5261424,10 14.75,10.2238576 14.75,10.5 L14.75,13.5 C14.75,14.2796961 14.1551119,14.9204487 13.39446,14.9931334 L13.25,15 L2.75,15 C1.97030388,15 1.32955132,14.4051119 1.25686658,13.64446 L1.25,13.5 L1.24934721,8.34356954 C0.588276217,8.0541754 0.126401804,7.39422688 0.126401804,6.6264018 C0.126401804,6.45393306 0.150214299,6.28256945 0.196946424,6.11711966 L0.251285356,5.95381925 L1.91005394,1.64102092 C2.0437358,1.29344808 2.35764514,1.05227941 2.72072979,1.0075214 L2.84339955,1 L13.1566005,1 Z M4.644,2 L2.843,2 L1.18463096,6.31279833 C1.15897063,6.37951519 1.14164445,6.44900128 1.13294481,6.51968188 L1.13294481,6.51968188 L1.1264018,6.6264018 C1.1264018,7.10887676 1.51752504,7.5 2,7.5 C2.92118272,7.5 3.71272861,6.84617078 3.88669156,5.94156341 L3.88669156,5.94156341 L4.644,2 Z M7.5,2 L5.663,2 L4.85964219,6.18438475 L4.85316287,6.23869718 L4.84796888,6.34796888 C4.84796888,6.9842181 5.36375078,7.5 6,7.5 C6.82842712,7.5 7.5,6.82842712 7.5,6 L7.5,6 L7.5,2 Z M10.336,2 L8.5,2 L8.5,6 C8.5,6.77969612 9.09488808,7.42044868 9.85553999,7.49313342 L9.85553999,7.49313342 L10,7.5 C10.0730124,7.5 10.1458594,7.49305907 10.2175581,7.47927087 C10.8423589,7.35911686 11.251456,6.75521164 11.131302,6.1304108 L11.131302,6.1304108 L10.336,2 Z M13.156,2 L11.355,2 L12.1133084,5.94156341 C12.2770383,6.79295858 12.9878312,7.42221117 13.8388834,7.49329488 L13.8388834,7.49329488 L14,7.5 C14.1072221,7.5 14.2135282,7.48026134 14.3136035,7.44177084 C14.7639194,7.26857242 14.9885675,6.76311421 14.815369,6.31279833 L14.815369,6.31279833 L13.156,2 Z"/></svg>

<svg xmlns="http://www.w3.org/2000/svg" width="16" height="16" fill="none" viewBox="0 0 16 16">
  <path fill="#242424" d="M2.843 1.001h10.313a1 1 0 0 1 .934.641l1.659 4.313a1.874 1.874 0 0 1-1.75 2.546 2.92 2.92 0 0 1-2.19-.988 2.146 2.146 0 0 1-1.81.988 2.496 2.496 0 0 1-2-1c-.455.607-1.181 1-2 1a2.15 2.15 0 0 1-1.81-.988c-.485.55-1.182.91-1.943.977V7.484a1.933 1.933 0 0 0 1.64-1.541L4.548 2.5h1.019l-.708 3.684-.006.055-.005.109C4.848 6.984 5.364 7.5 6 7.5A1.5 1.5 0 0 0 7.5 6V2.5h1V6a1.5 1.5 0 0 0 1.355 1.493L10 7.5a1.151 1.151 0 0 0 1.131-1.37l-.699-3.63h1.019l.662 3.442c.164.85.875 1.48 1.726 1.551l.16.007a.874.874 0 0 0 .816-1.187L13.155 2H2.844l-1.66 4.314a.874.874 0 0 0-.051.207l-.007.106c0 .483.391.874.874.874.083 0 .165-.005.246-.016v1.516h.004v4.5a.5.5 0 0 0 .5.5h10.5a.5.5 0 0 0 .5-.5v-3a.5.5 0 1 1 1 0v3a1.5 1.5 0 0 1-1.5 1.5H2.75a1.5 1.5 0 0 1-1.5-1.5V8.345a1.874 1.874 0 0 1-.999-2.39L1.91 1.642a1 1 0 0 1 .933-.641Z"/>
</svg>
